framework/flag-icon-css/ax.svg

<svg xmlns="http://www.w3.org/2000/svg" height="480" width="640" viewBox="0 0 640 480">
  <defs>
    <clipPath id="a">
      <path fill-opacity=".67" d="M106.25 0h1133.3v850H106.25z"/>
    </clipPath>
  </defs>
  <g clip-path="url(#a)" transform="matrix(.56472 0 0 .56482 -60.002 -.1)">
    <path d="M0 0h1300v850H0z" fill="#0053a5"/>
    <g fill="#ffce00">
      <path d="M400 0h250v850H400z"/>
      <path d="M0 300h1300v250H0z"/>
    </g>
    <g fill="#d21034">
      <path d="M475 0h100v850H475z"/>
      <path d="M0 375h1300v100H0z"/>
    </g>
  </g>
</svg>

<?xml version="1.0" encoding="UTF-8" standalone="no"?>
<svg
   xmlns:dc="http://purl.org/dc/elements/1.1/"
   xmlns:cc="http://creativecommons.org/ns#"
   xmlns:rdf="http://www.w3.org/1999/02/22-rdf-syntax-ns#"
   xmlns:svg="http://www.w3.org/2000/svg"
   xmlns="http://www.w3.org/2000/svg"
   xmlns:sodipodi="http://sodipodi.sourceforge.net/DTD/sodipodi-0.dtd"
   xmlns:inkscape="http://www.inkscape.org/namespaces/inkscape"
   height="16"
   width="21.328932"
   viewBox="0 0 21.328932 16"
   version="1.1"
   id="svg23"
   sodipodi:docname="ax.svg"
   inkscape:version="0.92.1 r">
  <metadata
     id="metadata27">
    <rdf:RDF>
      <cc:Work
         rdf:about="">
        <dc:format>image/svg+xml</dc:format>
        <dc:type
           rdf:resource="http://purl.org/dc/dcmitype/StillImage" />
        <dc:title></dc:title>
      </cc:Work>
    </rdf:RDF>
  </metadata>
  <sodipodi:namedview
     pagecolor="#ffffff"
     bordercolor="#666666"
     borderopacity="1"
     objecttolerance="10"
     gridtolerance="10"
     guidetolerance="10"
     inkscape:pageopacity="0"
     inkscape:pageshadow="2"
     inkscape:window-width="1920"
     inkscape:window-height="1024"
     id="namedview25"
     showgrid="false"
     fit-margin-top="0"
     fit-margin-left="0"
     fit-margin-right="0"
     fit-margin-bottom="0"
     inkscape:zoom="0.49166667"
     inkscape:cx="320.0005"
     inkscape:cy="239.997"
     inkscape:window-x="0"
     inkscape:window-y="0"
     inkscape:window-maximized="1"
     inkscape:current-layer="svg23" />
  <defs
     id="defs5">
    <clipPath
       id="a">
      <path
         d="m 106.25,0 h 1133.3 V 850 H 106.25 Z"
         id="path2"
         inkscape:connector-curvature="0"
         style="fill-opacity:0.67000002" />
    </clipPath>
  </defs>
  <g
     clip-path="url(#a)"
     transform="matrix(0.0188202,0,0,0.01882353,-1.9996462,0)"
     id="g21">
    <path
       d="M 0,0 H 1300 V 850 H 0 Z"
       id="path7"
       inkscape:connector-curvature="0"
       style="fill:#0053a5" />
    <g
       id="g13"
       style="fill:#ffce00">
      <path
         d="M 400,0 H 650 V 850 H 400 Z"
         id="path9"
         inkscape:connector-curvature="0" />
      <path
         d="M 0,300 H 1300 V 550 H 0 Z"
         id="path11"
         inkscape:connector-curvature="0" />
    </g>
    <g
       id="g19"
       style="fill:#d21034">
      <path
         d="M 475,0 H 575 V 850 H 475 Z"
         id="path15"
         inkscape:connector-curvature="0" />
      <path
         d="M 0,375 H 1300 V 475 H 0 Z"
         id="path17"
         inkscape:connector-curvature="0" />
    </g>
  </g>
</svg>
